packages/kaspersky-hexa-ui-icons/src/iconsSVGs/16x12/FlagHr.svg

<svg width="16" height="12" viewBox="0 0 16 12" fill="none" xmlns="http://www.w3.org/2000/svg">
<g clip-path="url(#clip0_41813_2560)">
<rect x="0.25" y="0.25" width="15.5" height="11.5" rx="1.75" fill="white" stroke="#F5F5F5" stroke-width="0.5"/>
<mask id="mask0_41813_2560" style="mask-type:luminance" maskUnits="userSpaceOnUse" x="0" y="0" width="16" height="12">
<rect x="0.25" y="0.25" width="15.5" height="11.5" rx="1.75" fill="white" stroke="white" stroke-width="0.5"/>
</mask>
<g mask="url(#mask0_41813_2560)">
<path fill-rule="evenodd" clip-rule="evenodd" d="M0 4H16V0H0V4Z" fill="#FF202D"/>
<path opacity="0.5" d="M6.85706 3.19986V3.99966H6.09534V3.19986L6.4762 2.80045L6.85706 3.19986ZM8.38049 3.19986V3.99966H7.61877V3.19986L7.99963 2.80045L8.38049 3.19986ZM9.90491 3.19986V3.99966H9.14319V3.19986L9.52405 2.80045L9.90491 3.19986Z" fill="#1895DB"/>
<path opacity="0.5" d="M7.61914 3.19986V3.99966H6.85742V3.19986L7.23828 2.80045L7.61914 3.19986ZM9.14258 3.19986V3.99966H8.38086V3.19986L8.76172 2.80045L9.14258 3.19986Z" fill="#191F94"/>
<path fill-rule="evenodd" clip-rule="evenodd" d="M0 12H16V8H0V12Z" fill="#2027AC"/>
<path d="M7.61877 8.80045H6.85706V7.99966H7.61877V8.80045ZM9.14319 8.80045H8.38049V7.99966H9.14319V8.80045ZM6.85706 7.99966H6.09534V7.19986H6.85706V7.99966ZM8.38049 7.99966H7.61877V7.19986H8.38049V7.99966ZM9.90491 7.99966H9.14319V7.19986H9.90491V7.99966ZM7.61877 7.19986H6.85706V6.40005H7.61877V7.19986ZM9.14319 7.19986H8.38049V6.40005H9.14319V7.19986ZM6.85706 6.40005H6.09534V5.60025H6.85706V6.40005ZM8.38049 6.40005H7.61877V5.60025H8.38049V6.40005ZM9.90491 6.40005H9.14319V5.60025H9.90491V6.40005ZM7.61877 5.60025H6.85706V4.80045H7.61877V5.60025ZM9.14319 5.60025H8.38049V4.80045H9.14319V5.60025ZM6.85706 4.80045H6.09534L6.4762 3.99966H6.85706V4.80045ZM8.38049 4.80045H7.61877V3.99966H8.38049V4.80045ZM9.90491 4.80045H9.14319V3.99966H9.52405L9.90491 4.80045Z" fill="url(#paint0_linear_41813_2560)"/>
</g>
</g>
<defs>
<linearGradient id="paint0_linear_41813_2560" x1="6.09534" y1="3.99966" x2="6.09534" y2="8.80045" gradientUnits="userSpaceOnUse">
<stop stop-color="#FF212E"/>
<stop offset="1" stop-color="#FD0D1B"/>
</linearGradient>
<clipPath id="clip0_41813_2560">
<rect width="16" height="12" fill="white"/>
</clipPath>
</defs>
</svg>

<svg xmlns="http://www.w3.org/2000/svg" width="16" height="12" fill="none" viewBox="0 0 16 12"><g clip-path="url(#a)"><rect width="16" height="12" fill="#fff" stroke="#f5f5f5" rx="2"/><mask id="b" width="16" height="12" x="0" y="0" maskUnits="userSpaceOnUse" style="mask-type:luminance"><rect width="16" height="12" fill="#fff" stroke="#fff" rx="2"/></mask><g mask="url(#b)"><path fill="#ff202d" fill-rule="evenodd" d="M0 4h16V0H0z" clip-rule="evenodd"/><path fill="#1895db" d="M6.857 3.1999v.7998h-.7617v-.7998l.3809-.3994zm1.5235 0v.7998h-.7617v-.7998l.3808-.3994zm1.5244 0v.7998h-.7617v-.7998l.3809-.3994z"/><path fill="#191f94" d="M7.6191 3.1999v.7998h-.7617v-.7998l.3809-.3994zm1.5235 0v.7998h-.7617v-.7998l.3808-.3994z"/><path fill="#2027ac" fill-rule="evenodd" d="M0 12h16V8H0z" clip-rule="evenodd"/><path fill="url(#c)" d="M7.6188 8.8005H6.857v-.8008h.7617zm1.5244 0h-.7627v-.8008h.7627zM6.857 7.9997h-.7618v-.7998h.7618zm1.5234 0h-.7617v-.7998h.7617zm1.5244 0h-.7617v-.7998h.7617zm-2.2861-.7998H6.857V6.4h.7617zm1.5244 0h-.7627V6.4h.7627zM6.857 6.4h-.7618v-.7998h.7618zm1.5234 0h-.7617v-.7998h.7617zm1.5244 0h-.7617v-.7998h.7617zm-2.2861-.7998H6.857v-.7998h.7617zm1.5244 0h-.7627v-.7998h.7627zM6.857 4.8005h-.7618l.3809-.8007h.3809zm1.5234 0h-.7617v-.8007h.7617zm1.5244 0h-.7617v-.8007h.3809z"/></g></g><defs><linearGradient id="c" x1="6" x2="6" y1="4" y2="9" gradientUnits="userSpaceOnUse"><stop stop-color="#ff212e"/><stop offset="1" stop-color="#fd0d1b"/></linearGradient><clipPath id="a"><path fill="#fff" d="M0 0h16v12H0z"/></clipPath></defs></svg>
